X:39
T:See See Ye Swains yon Streaks of Red (with seconds). JBut.657
B:John Buttrey MS, poss. Lincolnshire, early 19thC
S:https://buttreymilitarysocialtunes1800.wordpress.com/
Z:Village Music Project 2019 Steve Dumpleton/Roger Hare
M:6/8
L:1/8
Q:3/8=96
K:D
V:1
|:dcd|A2A B2B|A2z dcd|e2f g2f|e2z dcd|
A2A B2B|A2z dcd|egf edc|d3:|
|:dcd|A2B =cBc|B2G e^de|B2c ded|c2A gfe|
gfe gfe|c2A def|efg fed|!fermata!a3 dcd|
A2A B2B|A2z dcd|e2f g2f|e2z dcd|
A2A B2B|A2z dcd|egf edc|d3:|
V:2
|: FAF | F2 F G2 G | F2 z FAF | c2 d e2 d | c2 z FAF |
F2 F G2 G | F2 z FAF | ded cAG | F3 :|
|: FAF | F2 G EEE | G2 E c_Bc | G2 A GAG | A2 F edA |
edA edc | A2 F FAd | cde dAF |!fermata!c3 FAF |
F2 F G2 G | F2 z FAF | F2 d e2 d |
c2 z FAF | F2 F G2 G| "^illegible"Z|Z|z3:|

